content/static/img/severity.svg

<svg width="15" height="14" viewBox="0 0 15 14" fill="none" xmlns="http://www.w3.org/2000/svg">
<g id="18x18/severity">
<path id="Shape" fill-rule="evenodd" clip-rule="evenodd" d="M7.45159 0.777771L13.6738 11.6667H1.22937L7.45159 0.777771ZM6.67515 7.77778H8.23071V3.88889H6.67515V7.77778ZM8.23071 10.1111H6.67515V8.55556H8.23071V10.1111Z" fill="white"/>
</g>
</svg>

<svg width="15" height="14" fill="none" xmlns="http://www.w3.org/2000/svg"><path fill-rule="evenodd" clip-rule="evenodd" d="M7.452.778l6.222 10.889H1.229L7.452.777zm-.777 7h1.556v-3.89H6.675v3.89zm1.556 2.333H6.675V8.556h1.556v1.555z" fill="#fff"/></svg>
